X: 26423
T: Merry Sisters, The
R: reel
M: 4/4
K: Edorian
BE~E2 BdcA|B2Ed BAFA|1 BE~E2 BdcA|dD~D2 ~D2FA:|2 DEFA dfea|fdec d2cA||
Beec dBcA|Beed BAFA|Beec dfed|BdAB dAFA|
~B3A dcdf|edef gfed|(3Bcd ec dfed|BdAB dAFD||
Edcd BdAd|BE~E3 BAFA|B2dA BdAB|dD~D2 DEFA|
BdAd ~B2Ad|BE~E2 BAFE|DEFA dfea|fdec d2cA||
"Last time" fdec d4||

